img/icon/menu-icon/olimpyc.svg

<svg width="24" height="24" viewBox="0 0 24 24" fill="none" xmlns="http://www.w3.org/2000/svg">
<path d="M18.4735 13.0315V7.33614C18.4735 6.75036 18.2403 6.18779 17.8258 5.77332L14.7002 2.64768C14.2857 2.23321 13.7231 2 13.1373 2H5.2105C3.9892 2 3 2.9892 3 4.2105V19.684C3 20.9053 3.9892 21.8945 5.2105 21.8945H13.9066M18.4735 7.52624H14.0525C13.4424 7.52624 12.9472 7.03109 12.9472 6.42099V2M17.9828 16.6147L15.833 18.7644L14.5432 17.4746M11.0407 18.3732L11.7746 19.3336L11.9337 20.5284C12.0221 21.1915 12.5427 21.7132 13.2059 21.8016L14.404 21.9619L15.3633 22.6958C15.8938 23.1014 16.631 23.1014 17.1616 22.6958L18.122 21.9619L19.3168 21.8027C19.9799 21.7143 20.5016 21.1937 20.59 20.5306L20.7503 19.3325C20.7503 19.3336 21.1217 18.8473 21.4842 18.3732C21.8898 17.8426 21.8898 17.1054 21.4842 16.5749L20.7503 15.6145L20.5911 14.4197C20.5027 13.7565 19.9821 13.2349 19.319 13.1464L18.1209 12.9862L17.1616 12.2523C16.631 11.8467 15.8938 11.8467 15.3633 12.2523L14.4029 12.9862L13.2081 13.1453C12.5449 13.2337 12.0232 13.7543 11.9348 14.4175L11.7746 15.6156C11.7746 15.6145 11.4032 16.1008 11.0407 16.5749C10.6351 17.1054 10.6351 17.8415 11.0407 18.3732Z" stroke="#848E9F" stroke-width="1.5" stroke-linecap="round" stroke-linejoin="round"/>
</svg>

<svg width="24" height="24" fill="none" xmlns="http://www.w3.org/2000/svg"><path d="M18.474 13.031V7.336c0-.586-.234-1.148-.648-1.563L14.7 2.648A2.211 2.211 0 0 0 13.137 2H5.21A2.21 2.21 0 0 0 3 4.21v15.474c0 1.221.99 2.21 2.21 2.21h8.697m4.567-14.368h-4.421c-.61 0-1.106-.495-1.106-1.105V2m5.036 14.615l-2.15 2.15-1.29-1.29m-3.502.898l.734.96.159 1.195a1.48 1.48 0 0 0 1.272 1.274l1.198.16.96.734a1.48 1.48 0 0 0 1.798 0l.96-.734 1.195-.16a1.48 1.48 0 0 0 1.273-1.271l.16-1.198.734-.96a1.48 1.48 0 0 0 0-1.798l-.734-.96-.159-1.195a1.481 1.481 0 0 0-1.272-1.274l-1.198-.16-.96-.734a1.48 1.48 0 0 0-1.798 0l-.96.734-1.195.16a1.48 1.48 0 0 0-1.273 1.271l-.16 1.199c0-.002-.372.485-.734.959a1.48 1.48 0 0 0 0 1.798z" stroke="#848E9F" stroke-width="1.5" stroke-linecap="round" stroke-linejoin="round"/></svg>
